imgs/icons/linkedin-icon.svg

<svg width="38" height="38" viewBox="0 0 38 38" fill="none" xmlns="http://www.w3.org/2000/svg">
<g clip-path="url(#clip0_83_199)">
<path d="M30.0833 0H7.91667C3.54508 0 0 3.54508 0 7.91667V30.0833C0 34.4549 3.54508 38 7.91667 38H30.0833C34.4565 38 38 34.4549 38 30.0833V7.91667C38 3.54508 34.4565 0 30.0833 0ZM12.6667 30.0833H7.91667V12.6667H12.6667V30.0833ZM10.2917 10.659C8.76217 10.659 7.52083 9.40817 7.52083 7.866C7.52083 6.32383 8.76217 5.073 10.2917 5.073C11.8212 5.073 13.0625 6.32383 13.0625 7.866C13.0625 9.40817 11.8228 10.659 10.2917 10.659ZM31.6667 30.0833H26.9167V21.2103C26.9167 15.8777 20.5833 16.2814 20.5833 21.2103V30.0833H15.8333V12.6667H20.5833V15.4613C22.7937 11.3668 31.6667 11.0643 31.6667 19.3816V30.0833Z" fill="black"/>
</g>
<defs>
<clipPath id="clip0_83_199">
<rect width="38" height="38" fill="white"/>
</clipPath>
</defs>
</svg>

<svg xmlns="http://www.w3.org/2000/svg" width="38" height="38" fill="none"><g clip-path="url(#a)"><path fill="#000" d="M30.08 0H7.92A7.92 7.92 0 0 0 0 7.92v22.16A7.92 7.92 0 0 0 7.92 38h22.16A7.92 7.92 0 0 0 38 30.08V7.92A7.92 7.92 0 0 0 30.08 0ZM12.67 30.08H7.92V12.67h4.75v17.41Zm-2.38-19.42a2.78 2.78 0 0 1-2.77-2.8c0-1.54 1.24-2.79 2.77-2.79a2.78 2.78 0 0 1 2.77 2.8c0 1.54-1.24 2.79-2.77 2.79Zm21.38 19.42h-4.75v-8.87c0-5.33-6.34-4.93-6.34 0v8.87h-4.75V12.67h4.75v2.8a6.02 6.02 0 0 1 11.09 3.91v10.7Z"/></g><defs><clipPath id="a"><path fill="#fff" d="M0 0h38v38H0z"/></clipPath></defs></svg>
